X: 220
T: Drag Her Down The Road
M: 4/4
L: 1/8
R: reel
K:Emin
BEED E2 GE | EDB,E DEGA | BEED E2DE |1 GABG A2GA :|2GABG A2BA |
~G3F GBdB | cBAB cdec | B3A GBde | dBGB A2GE |
DGGF GBdB | cBAB cdef | gedB c2ge | dBGB A2GA ||

